X: 3016
T: A Trip to Rookby Park
N: Pub: J. Walsh, London, 1748
Z: 2012 John Chambers <jc:trillian.mit.edu>
M: C|
L: 1/8
K: D
V: 1
|: a>gf>e d/e/f/g/ a2 | AcBd ced2 | dfeg f^gab | eba^g a4 :|
|: a>gf>e ^dfef | ge=dc defA | Bgfe dbag | fedc d2D2 :|
V: 2 clef=bass middle=d
|: d'2a2 d2f2 | a2e2 A2d2 | d'2a2 d'2b2 | e'2e2 a2A2 :|
|: f2a2 b2^d2 | e2g2 f2d2 | g2e2 f2g2 | a2A2 d4 :|
%%begintext align
The 1st & 2d Cu. foot it all four Right & Left half round .|
foot it to the same back again :|
Gallop down one Cu. up again & cast off .|.
Right hand and left :|:
%%endtext

%%sep 1 1 500
%%sep 1 1 500

